;TIME:11427.86
;Filament used:25.81220m
;Layer height:0.200
; HEADER_BLOCK_START
; generated by Creality_Print V6.2.1.3044 on 2025-08-10 at 18:04:38
; total layer number: 110
; filament_density: 1.24
; filament_diameter: 1.75
; max_z_height: 22.00
; creality_uuid: ddc957b1-eb50-4aef-9961-794a7d4c3db9
; HEADER_BLOCK_END

; MINX = 10.89
; MINY = 21.29
; MINZ = 0.00
; MAXX = 210.89
; MAXY = 165.29
; MAXZ = 22.00

; THUMBNAIL_BLOCK_START

;
; THUMBNAIL_BLOCK_END

; THUMBNAIL_BLOCK_START

;
; THUMBNAIL_BLOCK_END

; external perimeters extrusion width = 0.42mm
; perimeters extrusion width = 0.45mm
; infill extrusion width = 0.45mm
; solid infill extrusion width = 0.42mm
; top infill extrusion width = 0.42mm
; support material extrusion width = 0.40mm
; first layer extrusion width = 0.50mm

; EXECUTABLE_BLOCK_START
M73 P0 R190
M201 X5000 Y5000 Z500 E5000
M203 X500 Y500 Z30 E100
M204 P5000 R2500 T5000 ; sets acceleration (P, T) and retract acceleration (R), mm/sec^2
M205 X10.00 Y10.00 Z0.40 E5.00 ; sets the jerk limits, mm/sec
;TYPE:Custom
M220 S100 ;Reset Feedrate 
M221 S100 ;Reset Flowrate 
 
M140 S50 ;Set final bed temp 
G28 ;Home 
 
G92 E0 ;Reset Extruder 
G1 Z2.0 F3000 ;Move Z Axis up 
M104 S190 ;Set final nozzle temp 
G1 X-2.1 Y20 Z0.28 F5000.0 ;Move to start position 
M190 S50 ;Wait for bed temp to stabilize 
M109 S190 ;Wait for nozzle temp to stabilize 
G1 X-2.1 Y145.0 Z0.28 F1500.0 E15 ;Draw the first line 
G1 X-2.4 Y145.0 Z0.28 F5000.0 ;Move to side a little 
G1 X-2.4 Y20 Z0.28 F1500.0 E30 ;Draw the second line 
G92 E0  ;Reset Extruder 
G1 E-1.0000 F1800 ;Retract a bit 
G1 Z2.0 F3000 ;Move Z Axis up 
G1 E0.0000 F1800
G90
G21
M83 ; use relative distances for extrusion
;filament start gcode
G1 E-1.2 F2400 ; retract
M106 S0 ; disable fan
;LAYER_CHANGE
;Z:0.2
;HEIGHT:0.2
;BEFORE_LAYER_CHANGE
;0.2
G92 E0

;_SET_FAN_SPEED_CHANGING_LAYER
M204 P500 ; adjust acceleration
M205 X10 Y10 ; adjust jerk
; printing object box_top_c.stl id:0 copy 0
M204 T500 ; adjust acceleration
G1 X24.02 Y158.218 Z.2 F9000 ; move to first perimeter point travel_to_xyz
G1 E1.2 F1800 ;  ; unretract
;TYPE:Inner wall
;WIDTH:0.499999
G1 F1200
G1 X23.183 Y161.342 E.11678 ; perimeter
G1 X20.946 Y163.579 E.11425 ; perimeter
G1 X17.889 Y164.398 E.11425 ; perimeter
G1 X14.833 Y163.579 E.11424 ; perimeter
G1 X12.596 Y161.342 E.11425 ; perimeter
G1 X11.777 Y158.285 E.11424 ; perimeter
G1 X12.596 Y155.229 E.11424 ; perimeter
G1 X14.833 Y152.992 E.11425 ; perimeter
G1 X18.238 Y152.079 E.12729 ; perimeter
G1 X18.506 Y151.939 E.01091 ; perimeter
G1 X18.672 Y151.727 E.00973 ; perimeter
G1 X18.746 Y151.417 E.0115 ; perimeter
G1 X18.746 Y35.154 E4.19779 ; perimeter
G1 X18.672 Y34.844 E.0115 ; perimeter
G1 X18.505 Y34.632 E.00974 ; perimeter
G1 X18.238 Y34.492 E.0109 ; perimeter
G1 X14.833 Y33.579 E.12729 ; perimeter
G1 X12.596 Y31.342 E.11425 ; perimeter
G1 X11.777 Y28.285 E.11424 ; perimeter
G1 X12.596 Y25.229 E.11425 ; perimeter
G1 X14.833 Y22.992 E.11425 ; perimeter
G1 X17.889 Y22.173 E.11425 ; perimeter
G1 X20.946 Y22.992 E.11425 ; perimeter
G1 X23.183 Y25.229 E.11425 ; perimeter
G1 X24.095 Y28.634 E.12729 ; perimeter
G1 X24.236 Y28.902 E.01091 ; perimeter
G1 X24.451 Y29.07 E.00985 ; perimeter
G1 X24.758 Y29.143 E.01139 ; perimeter
G1 X197.021 Y29.143 E6.21973 ; perimeter
G1 X197.331 Y29.068 E.0115 ; perimeter
M73 P0 R189
G1 X197.543 Y28.902 E.00973 ; perimeter
G1 X197.683 Y28.634 E.01091 ; perimeter
G1 X198.596 Y25.229 E.12729 ; perimeter
G1 X200.833 Y22.992 E.11425 ; perimeter
G1 X203.889 Y22.173 E.11424 ; perimeter
G1 X206.946 Y22.992 E.11424 ; perimeter
G1 X209.183 Y25.229 E.11425 ; perimeter
G1 X210.002 Y28.285 E.11425 ; perimeter
G1 X209.183 Y31.342 E.11424 ; perimeter
G1 X206.946 Y33.579 E.11425 ; perimeter
G1 X203.54 Y34.492 E.12729 ; perimeter
G1 X203.273 Y34.632 E.01091 ; perimeter
G1 X203.106 Y34.844 E.00973 ; perimeter
G1 X203.032 Y35.154 E.0115 ; perimeter
G1 X203.032 Y151.417 E4.19779 ; perimeter
G1 X203.106 Y151.727 E.0115 ; perimeter
G1 X203.273 Y151.939 E.00973 ; perimeter
G1 X203.54 Y152.079 E.01091 ; perimeter
G1 X206.946 Y152.992 E.12729 ; perimeter
G1 X209.183 Y155.229 E.11425 ; perimeter
G1 X210.002 Y158.285 E.11425 ; perimeter
G1 X209.183 Y161.342 E.11424 ; perimeter
G1 X206.946 Y163.579 E.11425 ; perimeter
G1 X203.889 Y164.398 E.11424 ; perimeter
G1 X200.833 Y163.579 E.11424 ; perimeter
G1 X198.596 Y161.342 E.11425 ; perimeter
G1 X197.683 Y157.937 E.12729 ; perimeter
G1 X197.543 Y157.669 E.01091 ; perimeter
G1 X197.331 Y157.502 E.00973 ; perimeter
G1 X197.021 Y157.428 E.0115 ; perimeter
G1 X24.758 Y157.428 E6.21973 ; perimeter
G1 X24.448 Y157.502 E.0115 ; perimeter
G1 X24.236 Y157.669 E.00973 ; perimeter
G1 X24.095 Y157.937 E.01091 ; perimeter
G1 X24.03 Y158.179 E.00907 ; perimeter
G1 X24.634 Y157.922 F9000
;TYPE:Outer wall
G1 F1200
G1 X24.537 Y158.055 E.00594 ; perimeter
G1 X23.593 Y161.578 E.13171 ; perimeter
G1 X21.182 Y163.989 E.12309 ; perimeter
G1 X17.889 Y164.871 E.12309 ; perimeter
G1 X14.596 Y163.989 E.12309 ; perimeter
G1 X12.186 Y161.578 E.12309 ; perimeter
G1 X11.303 Y158.285 E.12309 ; perimeter
G1 X12.186 Y154.992 E.12309 ; perimeter
G1 X14.596 Y152.582 E.12309 ; perimeter
G1 X18.12 Y151.638 E.13171 ; perimeter
G1 X18.227 Y151.574 E.00449 ; perimeter
G1 X18.289 Y151.417 E.00611 ; perimeter
G1 X18.289 Y35.285 E4.19304 ; perimeter
G1 X18.253 Y35.03 E.00931 ; perimeter
G1 X18.12 Y34.933 E.00594 ; perimeter
G1 X14.596 Y33.989 E.13171 ; perimeter
G1 X12.186 Y31.578 E.12309 ; perimeter
G1 X11.303 Y28.285 E.12309 ; perimeter
G1 X12.186 Y24.992 E.12309 ; perimeter
G1 X14.596 Y22.582 E.12309 ; perimeter
G1 X17.889 Y21.7 E.12309 ; perimeter
G1 X21.182 Y22.582 E.12309 ; perimeter
G1 X23.593 Y24.992 E.12309 ; perimeter
G1 X24.537 Y28.516 E.13171 ; perimeter
G1 X24.601 Y28.623 E.00449 ; perimeter
G1 X24.758 Y28.685 E.00611 ; perimeter
G1 X196.889 Y28.685 E6.21498 ; perimeter
G1 X197.145 Y28.649 E.00931 ; perimeter
G1 X197.242 Y28.516 E.00594 ; perimeter
G1 X198.186 Y24.992 E.13171 ; perimeter
G1 X200.596 Y22.582 E.12309 ; perimeter
G1 X203.889 Y21.7 E.12309 ; perimeter
G1 X207.182 Y22.582 E.12309 ; perimeter
G1 X209.593 Y24.992 E.12309 ; perimeter
G1 X210.475 Y28.285 E.12309 ; perimeter
G1 X209.593 Y31.578 E.12309 ; perimeter
G1 X207.182 Y33.989 E.12309 ; perimeter
G1 X203.659 Y34.933 E.13171 ; perimeter
G1 X203.552 Y34.997 E.00449 ; perimeter
G1 X203.489 Y35.154 E.00611 ; perimeter
G1 X203.489 Y151.285 E4.19304 ; perimeter
G1 X203.526 Y151.541 E.00931 ; perimeter
G1 X203.659 Y151.638 E.00594 ; perimeter
G1 X207.182 Y152.582 E.13171 ; perimeter
G1 X209.593 Y154.992 E.12309 ; perimeter
G1 X210.475 Y158.285 E.12309 ; perimeter
G1 X209.593 Y161.578 E.12309 ; perimeter
G1 X207.182 Y163.989 E.12309 ; perimeter
G1 X203.889 Y164.871 E.12309 ; perimeter
G1 X200.596 Y163.989 E.12309 ; perimeter
G1 X198.186 Y161.578 E.12309 ; perimeter
G1 X197.242 Y158.055 E.13171 ; perimeter
G1 X197.178 Y157.948 E.00449 ; perimeter
G1 X197.021 Y157.885 E.00611 ; perimeter
G1 X24.889 Y157.885 E6.21498 ; perimeter
G1 X24.674 Y157.916 E.00787 ; perimeter
G1 E-1.2 F2400 ; retract
;WIPE_START
G1 F9000
G1 X24.537 Y158.055 ; wipe and retract
G1 X24.07 Y159.799 ; wipe and retract
;WIPE_END
G1 X27.881 Y159.605 Z.4 ; move to first perimeter point travel_to_xyz
G1 X199.106 Y150.882 Z.4 ; move to first perimeter point travel_to_xyz
G1 Z.2 ; restore layer Z
G1 E1.2 F1800 ;  ; unretract
;TYPE:Inner wall
G1 F1200
G1 X199.114 Y150.912 E.00111 ; perimeter
G1 X199.137 Y151.425 E.01854 ; perimeter
G3 X195.343 Y149.644 I-2.249 J-.14 E.31688 ; perimeter
G3 X198.995 Y150.486 I1.54 J1.661 E.15937 ; perimeter
G1 X199.095 Y150.843 E.0134 ; perimeter
G1 X198.554 Y150.604 F9000
;TYPE:Outer wall
G1 F1200
G1 X198.557 Y150.619 E.00055 ; perimeter
G3 X198.682 Y151.38 I-1.67 J.665 E.02806 ; perimeter
G3 X195.633 Y149.997 I-1.795 J-.096 E.25218 ; perimeter
G3 X198.395 Y150.306 I1.255 J1.287 E.11475 ; perimeter
G1 X198.535 Y150.569 E.01073 ; perimeter
G1 E-1.2 F2400 ; retract
;WIPE_START
G1 F9000
G1 X198.557 Y150.619 ; wipe and retract
G1 X198.659 Y150.956 ; wipe and retract
G1 X198.682 Y151.38 ; wipe and retract
G1 X198.65 Y151.659 ; wipe and retract
G1 X198.543 Y151.995 ; wipe and retract
G1 X198.373 Y152.304 ; wipe and retract
G1 X198.256 Y152.443 ; wipe and retract
;WIPE_END
G1 X198.157 Y148.628 Z.4 ; move to first perimeter point travel_to_xyz
G1 X195.271 Y36.852 Z.4 ; move to first perimeter point travel_to_xyz
G1 Z.2 ; restore layer Z
G1 E1.2 F1800 ;  ; unretract
;TYPE:Inner wall
G1 F1200
G1 X195.255 Y36.825 E.00114 ; perimeter
G3 X196.523 Y33.06 I1.642 J-1.543 E.17557 ; perimeter
G1 X197.028 Y33.038 E.01828 ; perimeter
G3 X198.436 Y36.927 I-.137 J2.249 E.18916 ; perimeter
G3 X195.586 Y37.115 I-1.539 J-1.645 E.11167 ; perimeter
G1 X195.302 Y36.878 E.01337 ; perimeter
G1 X195.884 Y36.777 F9000
;TYPE:Outer wall
G1 F1200
G1 X195.872 Y36.768 E.00056 ; perimeter
G3 X196.984 Y33.493 I1.019 J-1.48 E.16807 ; perimeter
G3 X198.146 Y36.574 I-.092 J1.795 E.15036 ; perimeter
G3 X196.18 Y36.938 I-1.255 J-1.286 E.07654 ; perimeter
G1 X195.919 Y36.796 E.01073 ; perimeter
G1 E-1.2 F2400 ; retract
;WIPE_START
G1 F9000
G1 X195.872 Y36.768 ; wipe and retract
G1 X195.601 Y36.542 ; wipe and retract
G1 X195.38 Y36.267 ; wipe and retract
G1 X195.218 Y35.953 ; wipe and retract
G1 X195.12 Y35.615 ; wipe and retract
G1 X195.09 Y35.263 ; wipe and retract
G1 X195.109 Y35.083 ; wipe and retract
;WIPE_END
G1 X192.374 Y37.744 Z.4 ; move to first perimeter point travel_to_xyz
G1 X79.282 Y147.715 Z.4 ; move to first perimeter point travel_to_xyz
M73 P0 R188
G1 Z.2 ; restore layer Z
G1 E1.2 F1800 ;  ; unretract
;TYPE:Inner wall
G1 F1200
G1 X79.282 Y38.355 E3.94857 ; perimeter
G1 X79.335 Y38.091 E.00971 ; perimeter
G1 X79.481 Y37.872 E.00951 ; perimeter
G1 X79.745 Y37.706 E.01127 ; perimeter
G1 X79.968 Y37.669 E.00814 ; perimeter
G1 X145.321 Y37.669 E2.35964 ; perimeter
G1 X145.644 Y37.75 E.01201 ; perimeter
G1 X145.87 Y37.943 E.01074 ; perimeter
G1 X146.007 Y38.257 E.01235 ; perimeter
G1 X146.007 Y148.215 E3.97016 ; perimeter
G1 X145.954 Y148.479 E.00971 ; perimeter
G1 X145.808 Y148.698 E.00951 ; perimeter
G1 X145.543 Y148.864 E.01127 ; perimeter
G1 X145.321 Y148.901 E.00814 ; perimeter
G1 X79.968 Y148.901 E2.35964 ; perimeter
G1 X79.645 Y148.82 E.01201 ; perimeter
G1 X79.419 Y148.627 E.01074 ; perimeter
G1 X79.282 Y148.313 E.01235 ; perimeter
G1 X79.282 Y147.755 E.02015 ; perimeter
G1 X79.739 Y148.215 F9000
;TYPE:Outer wall
G1 F1200
G1 X79.739 Y38.355 E3.96662 ; perimeter
G1 X79.806 Y38.194 E.00628 ; perimeter
G1 X79.968 Y38.126 E.00635 ; perimeter
G1 X145.321 Y38.126 E2.35964 ; perimeter
G1 X145.483 Y38.194 E.00635 ; perimeter
M73 P1 R188
G1 X145.55 Y38.355 E.00628 ; perimeter
G1 X145.55 Y148.215 E3.96662 ; perimeter
G1 X145.483 Y148.376 E.00628 ; perimeter
G1 X145.321 Y148.444 E.00635 ; perimeter
G1 X79.968 Y148.444 E2.35964 ; perimeter
G1 X79.806 Y148.376 E.00635 ; perimeter
G1 X79.754 Y148.252 E.00484 ; perimeter
G1 E-1.2 F2400 ; retract
;WIPE_START
G1 F9000
G1 X79.754 Y146.252 ; wipe and retract
;WIPE_END
G1 X78.401 Y142.684 Z.4 ; move to first perimeter point travel_to_xyz
G1 X44.985 Y54.602 Z.4 ; move to first perimeter point travel_to_xyz
G1 Z.2 ; restore layer Z
G1 E1.2 F1800 ;  ; unretract
;TYPE:Inner wall
G1 F1200
G1 X45.196 Y54.71 E.00858 ; perimeter
G1 X45.85 Y55.229 E.03013 ; perimeter
G1 X46.39 Y55.865 E.03013 ; perimeter
G1 X46.795 Y56.595 E.03013 ; perimeter
G1 X47.05 Y57.389 E.03013 ; perimeter
G1 X47.145 Y58.218 E.03013 ; perimeter
G1 X47.077 Y59.05 E.03013 ; perimeter
G1 X46.847 Y59.852 E.03013 ; perimeter
G1 X46.465 Y60.594 E.03013 ; perimeter
G1 X45.945 Y61.247 E.03013 ; perimeter
G1 X45.308 Y61.786 E.03014 ; perimeter
G1 X44.578 Y62.191 E.03014 ; perimeter
G1 X43.783 Y62.445 E.03014 ; perimeter
G1 X42.957 Y62.54 E.03003 ; perimeter
G1 X42.127 Y62.471 E.03007 ; perimeter
G1 X41.325 Y62.242 E.03013 ; perimeter
G1 X40.582 Y61.861 E.03014 ; perimeter
G1 X39.928 Y61.342 E.03013 ; perimeter
G1 X39.389 Y60.705 E.03013 ; perimeter
G1 X38.983 Y59.976 E.03013 ; perimeter
G1 X38.728 Y59.182 E.03013 ; perimeter
G1 X38.633 Y58.353 E.03013 ; perimeter
G1 X38.702 Y57.521 E.03013 ; perimeter
G1 X38.932 Y56.719 E.03013 ; perimeter
G1 X39.314 Y55.977 E.03013 ; perimeter
G1 X39.833 Y55.324 E.03013 ; perimeter
G1 X40.47 Y54.785 E.03013 ; perimeter
G3 X41.998 Y54.125 I2.822 J4.434 E.06034 ; perimeter
G1 X42.822 Y54.031 E.02994 ; perimeter
G1 X43.652 Y54.099 E.03006 ; perimeter
G1 X44.454 Y54.329 E.03013 ; perimeter
G1 X44.95 Y54.583 E.02012 ; perimeter
G1 X44.336 Y54.774 F9000
;TYPE:Outer wall
G1 F1200
G1 X44.981 Y55.114 E.02632 ; perimeter
G1 X45.56 Y55.583 E.02691 ; perimeter
G1 X46.037 Y56.156 E.02691 ; perimeter
G1 X46.392 Y56.81 E.0269 ; perimeter
G1 X46.613 Y57.522 E.0269 ; perimeter
G1 X46.691 Y58.263 E.0269 ; perimeter
G1 X46.622 Y59.005 E.0269 ; perimeter
G1 X46.409 Y59.719 E.0269 ; perimeter
G1 X46.062 Y60.378 E.0269 ; perimeter
G1 X45.592 Y60.957 E.02691 ; perimeter
G1 X45.018 Y61.432 E.02691 ; perimeter
G1 X44.363 Y61.787 E.02692 ; perimeter
G1 X43.651 Y62.008 E.02692 ; perimeter
G1 X42.912 Y62.085 E.02682 ; perimeter
G1 X42.172 Y62.017 E.02684 ; perimeter
G1 X41.457 Y61.805 E.02692 ; perimeter
G1 X40.797 Y61.457 E.02692 ; perimeter
G1 X40.218 Y60.988 E.02691 ; perimeter
G1 X39.742 Y60.415 E.02691 ; perimeter
G1 X39.386 Y59.76 E.0269 ; perimeter
G1 X39.165 Y59.049 E.0269 ; perimeter
G1 X39.088 Y58.308 E.0269 ; perimeter
G1 X39.157 Y57.566 E.0269 ; perimeter
G1 X39.369 Y56.852 E.0269 ; perimeter
G1 X39.717 Y56.193 E.0269 ; perimeter
G1 X40.186 Y55.614 E.02691 ; perimeter
G1 X40.76 Y55.138 E.02691 ; perimeter
G3 X42.128 Y54.563 I2.517 J4.071 E.05381 ; perimeter
G1 X42.867 Y54.486 E.02681 ; perimeter
G1 X43.607 Y54.554 E.02683 ; perimeter
G1 X44.299 Y54.76 E.02607 ; perimeter
G1 E-1.2 F2400 ; retract
;WIPE_START
G1 F9000
G1 X44.981 Y55.114 ; wipe and retract
G1 X45.56 Y55.583 ; wipe and retract
G1 X45.871 Y55.956 ; wipe and retract
;WIPE_END
G1 X42.979 Y53.467 Z.4 ; move to first perimeter point travel_to_xyz
G1 X24.414 Y37.488 Z.4 ; move to first perimeter point travel_to_xyz
G1 Z.2 ; restore layer Z
G1 E1.2 F1800 ;  ; unretract
;TYPE:Inner wall
G1 F1200
G1 X24.385 Y37.475 E.00113 ; perimeter
G3 X26.947 Y34.361 I.506 J-2.194 E.33039 ; perimeter
G1 X27.114 Y34.912 E.02079 ; perimeter
G3 X26.947 Y36.21 I-2.505 J.338 E.04783 ; perimeter
G1 X26.669 Y36.664 E.0192 ; perimeter
G3 X24.822 Y37.532 I-1.777 J-1.382 E.07646 ; perimeter
G1 X24.454 Y37.492 E.01338 ; perimeter
G1 X24.882 Y37.084 F9000
;TYPE:Outer wall
G1 F1200
G1 X24.867 Y37.075 E.00064 ; perimeter
G3 X26.543 Y34.576 I.026 J-1.794 E.27823 ; perimeter
G3 X26.316 Y36.374 I-1.698 J.698 E.06843 ; perimeter
G3 X25.217 Y37.045 I-1.423 J-1.094 E.04756 ; perimeter
G1 X24.922 Y37.079 E.01071 ; perimeter
G1 E-1.2 F2400 ; retract
;WIPE_START
G1 F9000
G1 X24.867 Y37.075 ; wipe and retract
G1 X24.516 Y37.046 ; wipe and retract
G1 X24.18 Y36.94 ; wipe and retract
G1 X23.871 Y36.769 ; wipe and retract
G1 X23.601 Y36.542 ; wipe and retract
G1 X23.38 Y36.267 ; wipe and retract
G1 X23.297 Y36.106 ; wipe and retract
;WIPE_END
G1 X23.362 Y39.921 Z.4 ; move to first perimeter point travel_to_xyz
G1 X25.296 Y153.501 Z.4 ; move to first perimeter point travel_to_xyz
G1 Z.2 ; restore layer Z
G1 E1.2 F1800 ;  ; unretract
;TYPE:Inner wall
G1 F1200
G1 X25.263 Y153.51 E.00123 ; perimeter
G1 X24.75 Y153.533 E.01854 ; perimeter
G3 X24.956 Y149.031 I.142 J-2.249 E.25287 ; perimeter
G3 X25.689 Y153.392 I-.079 J2.255 E.22314 ; perimeter
G1 X25.335 Y153.49 E.01329 ; perimeter
G1 X25.574 Y152.948 F9000
;TYPE:Outer wall
G1 F1200
G1 X25.556 Y152.953 E.00067 ; perimeter
G3 X24.795 Y153.078 I-.666 J-1.67 E.02806 ; perimeter
G3 X24.912 Y149.486 I.097 J-1.795 E.20108 ; perimeter
G3 X25.868 Y152.791 I-.022 J1.797 E.16573 ; perimeter
G1 X25.609 Y152.929 E.01061 ; perimeter
G1 E-1.2 F2400 ; retract
;WIPE_START
G1 F9000
G1 X25.556 Y152.953 ; wipe and retract
G1 X25.218 Y153.055 ; wipe and retract
G1 X24.795 Y153.078 ; wipe and retract
G1 X24.516 Y153.046 ; wipe and retract
